brandFactory_export/1.Light/Mano abajo_1Light.svg

<?xml version="1.0" encoding="UTF-8"?>
<svg width="24px" height="24px" viewBox="0 0 24 24" version="1.1" xmlns="http://www.w3.org/2000/svg" xmlns:xlink="http://www.w3.org/1999/xlink">
    <title>1.Light/Mano abajo_1Light</title>
    <g id="Symbols" stroke="none" stroke-width="1" fill="none" fill-rule="evenodd">
        <g id="1.Light/Mano-abajo_1Light" fill="#5CB615" fill-rule="nonzero">
            <path d="M15.1260504,0 L5.80840336,0 C4.63193277,0 3.62689076,0.369747899 2.98151261,1.03865546 C2.33613445,1.70084034 2.01344538,2.62857143 2.01344538,3.78823529 L2.01344538,12.1613445 C2.01344538,13.6840336 2.94789916,14.6285714 4.45042017,14.6285714 C4.78991597,14.6285714 5.09915966,14.5781513 5.37815126,14.487395 C5.66386555,15.512605 6.50420168,16.1210084 7.70756303,16.1210084 C8.04705882,16.1210084 8.35966387,16.0705882 8.63865546,15.9798319 C8.92773109,16.994958 9.76470588,17.5966387 10.9647059,17.5966387 C11.2605042,17.5966387 11.5361345,17.5596639 11.7815126,17.4890756 L11.7815126,20.9613445 C11.7815126,22.5579832 12.7596639,23.5495798 14.3361345,23.5495798 C15.8521008,23.5495798 16.7798319,22.6252101 16.8840336,21.0151261 C16.8840336,20.9983193 16.887395,20.9781513 16.887395,20.9613445 L16.887395,12.1277311 C17.2941176,12.8168067 17.6571429,13.3008403 18.0941176,13.6504202 C18.5243697,13.9932773 19.0352941,14.1647059 19.5394958,14.1647059 C20.0235294,14.1647059 20.5008403,14.0067227 20.8941176,13.6907563 C21.6705882,13.0689076 21.8621849,12.0033613 21.3815126,10.9848739 C20.5680672,9.25042017 19.1966387,6.46386555 18.0941176,4.22521008 C17.4084034,2.8302521 16.8168067,1.62689076 16.6453782,1.26386555 C16.4739496,0.887394958 16.0638655,0 15.1260504,0 M15.1260504,0.98487395 C15.3512605,0.98487395 15.5327731,1.17983193 15.7647059,1.68739496 C15.9394958,2.06386555 16.5344538,3.27394958 17.2235294,4.67226891 C18.3226891,6.90756303 19.6907563,9.6907563 20.5008403,11.4117647 C20.7831933,12.0134454 20.702521,12.594958 20.2857143,12.9277311 C20.0739496,13.0991597 19.8151261,13.189916 19.5361345,13.189916 C19.2403361,13.189916 18.9378151,13.0823529 18.692437,12.8840336 C18.3831933,12.6352941 18.0907563,12.2621849 17.7176471,11.6302521 C17.4957983,11.2504202 17.0453782,11.0689076 16.6218487,11.1831933 C16.1983193,11.3008403 15.9058824,11.6907563 15.9058824,12.1310924 L15.9058824,20.9546218 C15.8151261,22.4033613 14.9613445,22.5714286 14.3294118,22.5714286 C13.2941176,22.5714286 12.7462185,22.0168067 12.7462185,20.9680672 L12.7462185,17.4957983 C12.7462185,17.1865546 12.605042,16.897479 12.3630252,16.712605 C12.1210084,16.5277311 11.805042,16.4672269 11.512605,16.5512605 C11.3310924,16.5983193 11.1462185,16.6218487 10.9579832,16.6184874 C10.205042,16.6184874 9.73781513,16.312605 9.56638655,15.7109244 C9.49243697,15.4554622 9.3210084,15.2403361 9.08571429,15.112605 C8.85042017,14.9882353 8.57478992,14.9647059 8.32268908,15.0487395 C8.1210084,15.112605 7.9092437,15.1428571 7.69747899,15.1394958 C6.94117647,15.1394958 6.47394958,14.8302521 6.30588235,14.2218487 C6.23529412,13.9630252 6.0605042,13.7478992 5.82521008,13.6201681 C5.58991597,13.4957983 5.31428571,13.4689076 5.06218487,13.5529412 C4.8605042,13.6168067 4.65210084,13.6470588 4.44033613,13.6436975 C3.46890756,13.6436975 2.97815126,13.1428571 2.97815126,12.1579832 L2.97815126,3.78823529 C2.97815126,2.8907563 3.21008403,2.19495798 3.67058824,1.7210084 C4.13109244,1.24369748 4.88739496,0.981512605 5.80168067,0.981512605 L15.1260504,0.98487395" id="Mano-abajo_1Light"></path>
        </g>
    </g>
</svg>

<svg width="24" height="24" viewBox="0 0 24 24" xmlns="http://www.w3.org/2000/svg"><path d="M15.126 0H5.808C4.632 0 3.627.37 2.982 1.039c-.646.662-.969 1.59-.969 2.75v8.372c0 1.523.935 2.468 2.437 2.468.34 0 .65-.05.928-.142.286 1.026 1.126 1.634 2.33 1.634.34 0 .652-.05.93-.141.29 1.015 1.127 1.617 2.327 1.617.296 0 .571-.037.817-.108v3.472c0 1.597.978 2.589 2.554 2.589 1.516 0 2.444-.925 2.548-2.535l.003-.054v-8.833c.407.689.77 1.173 1.207 1.522.43.343.941.515 1.445.515.485 0 .962-.158 1.355-.474.777-.622.968-1.688.488-2.706-.814-1.735-2.185-4.521-3.288-6.76-.686-1.395-1.277-2.598-1.449-2.961C16.474.887 16.064 0 15.126 0m0 .985c.225 0 .407.195.639.702.174.377.77 1.587 1.459 2.985 1.099 2.236 2.467 5.019 3.277 6.74.282.601.202 1.183-.215 1.516-.212.171-.47.262-.75.262-.296 0-.598-.108-.844-.306-.309-.249-.601-.622-.974-1.254a.975.975 0 00-1.096-.447.983.983 0 00-.716.948v8.824c-.09 1.448-.945 1.616-1.577 1.616-1.035 0-1.583-.554-1.583-1.603v-3.472a.982.982 0 00-.383-.783.964.964 0 00-.85-.162c-.182.047-.367.07-.555.067-.753 0-1.22-.305-1.392-.907a.974.974 0 00-1.244-.662 1.97 1.97 0 01-.625.09c-.756 0-1.223-.309-1.391-.917a.979.979 0 00-1.244-.67 1.95 1.95 0 01-.622.092c-.971 0-1.462-.501-1.462-1.486v-8.37c0-.897.232-1.593.693-2.067.46-.477 1.216-.74 2.13-.74l9.325.004" fill="#5CB615" fill-rule="nonzero"/></svg>
